packages/ffe-icons/icons/open/400/sm/sports_golf.svg

<svg xmlns="http://www.w3.org/2000/svg" height="20" viewBox="0 -960 960 960" width="20"><path d="M480.222-336Q370-336 293-412.778q-77-76.779-77-187Q216-710 292.778-787q76.779-77 187-77Q590-864 667-787.222q77 76.779 77 187Q744-490 667.222-413q-76.779 77-187 77Zm.004-72Q560-408 616-464.226t56-136Q672-680 615.774-736t-136-56Q400-792 344-735.774t-56 136Q288-520 344.226-464t136 56Zm-84.437-180Q411-588 421.5-598.289q10.5-10.29 10.5-25.5Q432-639 421.711-649.5q-10.29-10.5-25.5-10.5Q381-660 370.5-649.711q-10.5 10.29-10.5 25.5Q360-609 370.289-598.5q10.29 10.5 25.5 10.5Zm168 0Q579-588 589.5-598.289q10.5-10.29 10.5-25.5Q600-639 589.711-649.5q-10.29-10.5-25.5-10.5Q549-660 538.5-649.711q-10.5 10.29-10.5 25.5Q528-609 538.289-598.5q10.29 10.5 25.5 10.5Zm-84-96Q495-684 505.5-694.289q10.5-10.29 10.5-25.5Q516-735 505.711-745.5q-10.29-10.5-25.5-10.5Q465-756 454.5-745.711q-10.5 10.29-10.5 25.5Q444-705 454.289-694.5q10.29 10.5 25.5 10.5ZM444-96v-24q0-29.7-21.15-50.85Q401.7-192 372-192h-48q-15.3 0-25.65-10.289-10.35-10.29-10.35-25.5Q288-243 298.35-253.5 308.7-264 324-264h312q15.3 0 25.65 10.289 10.35 10.29 10.35 25.5Q672-213 661.65-202.5 651.3-192 636-192h-48q-29.7 0-50.85 21.15Q516-149.7 516-120v24h-72Zm36-501Z"/></svg>

<svg xmlns="http://www.w3.org/2000/svg" height="20" viewBox="0 -960 960 960" width="20"><path d="M480.22-336Q370-336 293-412.78t-77-187Q216-710 292.78-787t187-77Q590-864 667-787.22t77 187Q744-490 667.22-413t-187 77Zm.01-72Q560-408 616-464.23q56-56.22 56-136Q672-680 615.77-736q-56.22-56-136-56Q400-792 344-735.77q-56 56.22-56 136Q288-520 344.23-464q56.22 56 136 56Zm-84.44-180q15.21 0 25.71-10.29t10.5-25.5q0-15.21-10.29-25.71t-25.5-10.5q-15.21 0-25.71 10.29t-10.5 25.5q0 15.21 10.29 25.71t25.5 10.5Zm168 0q15.21 0 25.71-10.29t10.5-25.5q0-15.21-10.29-25.71t-25.5-10.5q-15.21 0-25.71 10.29t-10.5 25.5q0 15.21 10.29 25.71t25.5 10.5Zm-84-96q15.21 0 25.71-10.29t10.5-25.5q0-15.21-10.29-25.71t-25.5-10.5q-15.21 0-25.71 10.29t-10.5 25.5q0 15.21 10.29 25.71t25.5 10.5ZM444-96v-24q0-29.7-21.15-50.85Q401.7-192 372-192h-48q-15.3 0-25.65-10.29Q288-212.58 288-227.79t10.35-25.71Q308.7-264 324-264h312q15.3 0 25.65 10.29Q672-243.42 672-228.21t-10.35 25.71Q651.3-192 636-192h-48q-29.7 0-50.85 21.15Q516-149.7 516-120v24h-72Zm36-501Z"/></svg>
